X:223
T:Eddie Kelly's #2
R:jig
H:Second part is sometimes played double
D:Dolores Keane
Z:id:hn-jig-223
M:6/8
K:Em
GEF G2A | Bee edc | ~B3 GBG | AFD AFD |
GEF G2A | Bee edc | ~B3 GBG |1 AFD E2F :|2 AFD E3 ||
|: gfe fed | Bee Bee | gfe fed |1 B^cd e2f :|2 B^cd ed=c || 
P:variations of 1st part
|:BEF G2A | Bee edc | BAB GAB | AFD AFD |
GEF G2A | Bee edc | BAB GAB |1 AFD E2F :|2 AFD E3 ||

